src/lib/runemarks/svg/factions-chaos-bladeborn-gorechhosen-of-dromm.svg

<!-- Generated by IcoMoon.io -->
<svg version="1.1" xmlns="http://www.w3.org/2000/svg" width="1024" height="1024" viewBox="0 0 1024 1024">
<title></title>
<g id="icomoon-ignore">
</g>
<path  d="M349.263 131.316c-18.187 5.078-44.729 27.073-64.637 53.562-8.759 11.659-33.181 33.989-60.359 55.195-3.625 2.831-10.181 6.348-14.567 7.821-4.386 1.475-9.478 3.656-11.316 4.848-13.693 8.886-29.14 12.099-63.649 13.233-29.030 0.952-34.495 1.544-40.979 4.436-20.691 9.221-19.275 36.297 3.678 70.31 2.709 4.010 5.604 9.085 6.437 11.277 1.707 4.486 6.44 12.376 18.132 30.219 4.403 6.716 11.172 17.598 15.043 24.176 3.874 6.581 8.161 13.286 9.525 14.902s4.284 6.072 6.487 9.902c2.203 3.83 9.030 14.589 15.171 23.913s16.341 24.964 22.667 34.758c6.326 9.796 14.797 22.474 18.824 28.177 25.853 36.612 31.119 46.669 32.245 61.551 5.319 70.327-107.982 95.983-168.637 38.184-11.249-10.718-15.672-13.604-20.844-13.604-19.847 0-7.829 46.746 21.444 83.411 23.517 29.456 97.638 76.766 132.581 84.623 6.141 1.381 15.295 3.935 20.343 5.676 52.973 18.287 73.742 9.417 94.079-40.176 26.594-64.847 33.167-141.699 17.094-199.828-7.45-26.935-1.528-33.989 15.226-18.143 2.632 2.488 7.358 5.598 10.502 6.91 8.111 3.382 28.174 22.742 25.913 25.003-1.195 1.195-3.481 1.259-7.314 0.199-20.877-5.764-23.561 6.863-14.681 69.073 1.251 8.773 2.989 26.716 3.86 39.875 0.874 13.159 2.635 30.026 3.913 37.484 8.889 51.799 3.146 102.583-14.166 125.284-6.741 8.833-26.423 22.69-35.143 24.737-4.386 1.029-12.331 3.224-17.658 4.879-6.429 1.995-14.465 3.005-23.924 3.008-57.547 0.011-8.631 37.268 51.514 39.238 76.877 2.516 143.454-32.148 162.67-84.698 15.16-41.458 4.273-114.045-17.105-114.045-0.974 0-5.726 3.741-10.56 8.316l-8.792 8.313-7.992-9.11c-4.397-5.012-8.977-9.113-10.178-9.113-4.674 0-10.364 3.91-14.26 9.799-2.239 3.382-4.76 6.152-5.604 6.152-4.215 0-10.414-21.558-12.841-44.662-2.867-27.275-4.696-44.009-5.493-50.241-0.54-4.248-0.365-5.327 0.526-3.227 0.736 1.732 2.969 3.537 4.962 4.007 2.629 0.62 4.563 3.304 7.032 9.744 5.507 14.376 13.145 24.909 19.612 27.043 6.941 2.291 6.758 2.471 16.1-16.125 8.283-16.488 10.151-17.487 23.149-12.395 3.932 1.544 5.394 1.057 13.361-4.455 18.381-12.713 17.86-12.495 24.275-10.248 3.188 1.115 8.31 4.353 11.379 7.192 11.111 10.278 11.877 10.516 22.432 6.952l9.392-3.174 3.996 4.522c2.197 2.485 6.296 9.024 9.105 14.531 7.414 14.531 14.753 15.73 21.693 3.545 14.166-24.856 18.046-32.66 19.623-39.44 2.917-12.558 3.058-12.818 5.028-9.307 2.961 5.275 2.291 49.406-0.933 61.507-1.519 5.704-3.766 18.060-4.995 27.46-3.625 27.77-11.294 34.34-19.986 17.122-3.919-7.762-5.513-9.492-8.756-9.492-2.181 0-4.502-0.174-5.161-0.387s-3.077 3.099-5.377 7.356c-6.725 12.45-11.518 13.698-19.161 4.995-24.203-27.566-47.513 56.307-31.18 112.2 6.368 21.798 32.743 41.593 85.625 64.261 24.372 10.444 86.792 14.614 117.037 7.815 25.512-5.737 26.686-24.997 1.807-29.663-17.545-3.288-50.618-24.425-60.248-38.508-11.44-16.726-22.941-56.404-21.245-73.288 0.542-5.402 1.707-21.909 2.587-36.687 1.898-31.919 4.356-54.63 11.017-101.797 6.888-48.786 7.010-56.642 0.982-62.932-6.022-6.285-11.598-6.501-13.098-0.504-1.522 6.096-9.832 19.269-13.344 21.148-2.759 1.475-4.669 5.925-7.181 16.734l-1.112 4.785-1.544-3.988c-4.021-10.386 3.288-35.48 11.457-39.332 15.088-7.112 18.854-9.511 21.112-13.441 1.4-2.441 5.656-6.39 9.459-8.775 8.189-5.142 25.255-22.214 25.255-25.266 0-1.176 1.741-3.279 3.866-4.671 2.128-1.395 4.331-3.991 4.893-5.767 0.565-1.777 1.696-3.232 2.516-3.232 2.383 0 1.713 9.116-0.863 11.692-1.29 1.29-3.407 6.905-4.702 12.475-1.295 5.568-4.159 18.021-6.368 27.671s-5.571 24.087-7.472 32.082c-4.198 17.658-3.769 86.817 0.634 101.899 1.279 4.386 3.185 13.582 4.237 20.437 2.311 15.090 17.31 60.054 25.285 75.806 12.829 25.33 54.467 27.513 109.878 5.759 7.71-3.027 14.949-5.504 16.081-5.504 3.238 0 43.84-21.486 52.433-27.745 33.471-24.383 54.533-44.59 69.081-66.284 11.944-17.805 23.755-52.104 20.705-60.126-2.095-5.504-14.761-0.814-28.62 10.604-25.033 20.62-50.014 27.873-92.385 26.821-20.21-0.501-25.891-1.165-30.433-3.551-48.387-25.44-57.074-70.266-24.153-124.655 8.526-14.083 42.368-63.118 45.617-66.093 2.394-2.192 8.172-9.73 12.835-16.748s13.233-18.86 19.042-26.318c9.633-12.367 27.751-38.845 44.748-65.395 33.637-52.549 26.589-76.8-22.944-78.936-67.075-2.895-82.724-8.272-111.829-38.427-5.704-5.906-15.301-15.472-21.331-21.256s-16.078-15.879-22.33-22.435c-34.257-35.923-45.246-45.938-56.114-51.124l-10.823-5.164-22.46 0.872c-45.576 1.774-64.048 12.046-97.491 54.218-17.977 22.667-31.966 30.117-52.087 27.734-12.486-1.481-20.561-7.472-49.799-36.961-37.888-38.212-47.897-43.611-83.068-44.795-14.011-0.47-21.491 0.014-27.914 1.807zM400.044 343.929c2.928 1.458 12.871 11.457 22.097 22.216 9.224 10.759 18.024 20.451 19.551 21.533 11.479 8.139 28.329 33.715 30.261 45.93 6.913 43.727-79.354 32.411-104.105-13.657-23.738-44.184-2.856-93.495 32.195-76.022zM644.791 343.148c30.845 12.926 31.711 67.938 1.5 95.244-16.795 15.179-46.492 26.063-63.583 23.298-40.093-6.481-24.081-71.583 26.849-109.155 16.15-11.913 24.129-14.039 35.234-9.387zM306.751 414.964c6.581 9.356 6.589 9.387 7.17 26.384 0.933 27.247-3.224 26.484-16.612-3.052-0.996-2.195-3.47-7.577-5.499-11.963-9.902-21.394 1.685-30.211 14.941-11.368zM734.371 409.939c5.906 8.432 4.121 14-17.667 55.073-7.057 13.305-14.053 8.537-10.43-7.109 8.523-36.825 11.786-45.52 18.309-48.769 6.703-3.337 6.896-3.321 9.788 0.805zM517.288 479.048c9.096 2.289 19.886 28.767 14.852 36.449-8.349 12.746-44.112 5.701-44.112-8.689 0-11.31 16.684-32.046 23.675-29.425 1.179 0.44 3.692 1.19 5.585 1.666z"></path>
</svg>

<?xml version="1.0" encoding="UTF-8" standalone="no"?>
<!DOCTYPE svg PUBLIC "-//W3C//DTD SVG 1.1//EN" "http://www.w3.org/Graphics/SVG/1.1/DTD/svg11.dtd">
<svg width="100%" height="100%" viewBox="0 0 1024 1024" version="1.1" xmlns="http://www.w3.org/2000/svg" xmlns:xlink="http://www.w3.org/1999/xlink" xml:space="preserve" xmlns:serif="http://www.serif.com/" style="fill-rule:evenodd;clip-rule:evenodd;stroke-linejoin:round;stroke-miterlimit:2;">
    <g transform="matrix(1.09102,0,0,1.09102,-46.6043,-46.604)">
        <path d="M349.263,131.316C331.076,136.394 304.534,158.389 284.626,184.878C275.867,196.537 251.445,218.867 224.267,240.073C220.642,242.904 214.086,246.421 209.7,247.894C205.314,249.369 200.222,251.55 198.384,252.742C184.691,261.628 169.244,264.841 134.735,265.975C105.705,266.927 100.24,267.519 93.756,270.411C73.065,279.632 74.481,306.708 97.434,340.721C100.143,344.731 103.038,349.806 103.871,351.998C105.578,356.484 110.311,364.374 122.003,382.217C126.406,388.933 133.175,399.815 137.046,406.393C140.92,412.974 145.207,419.679 146.571,421.295C147.935,422.911 150.855,427.367 153.058,431.197C155.261,435.027 162.088,445.786 168.229,455.11C174.37,464.434 184.57,480.074 190.896,489.868C197.222,499.664 205.693,512.342 209.72,518.045C235.573,554.657 240.839,564.714 241.965,579.596C247.284,649.923 133.983,675.579 73.328,617.78C62.079,607.062 57.656,604.176 52.484,604.176C32.637,604.176 44.655,650.922 73.928,687.587C97.445,717.043 171.566,764.353 206.509,772.21C212.65,773.591 221.804,776.145 226.852,777.886C279.825,796.173 300.594,787.303 320.931,737.71C347.525,672.863 354.098,596.011 338.025,537.882C330.575,510.947 336.497,503.893 353.251,519.739C355.883,522.227 360.609,525.337 363.753,526.649C371.864,530.031 391.927,549.391 389.666,551.652C388.471,552.847 386.185,552.911 382.352,551.851C361.475,546.087 358.791,558.714 367.671,620.924C368.922,629.697 370.66,647.64 371.531,660.799C372.405,673.958 374.166,690.825 375.444,698.283C384.333,750.082 378.59,800.866 361.278,823.567C354.537,832.4 334.855,846.257 326.135,848.304C321.749,849.333 313.804,851.528 308.477,853.183C302.048,855.178 294.012,856.188 284.553,856.191C227.006,856.202 275.922,893.459 336.067,895.429C412.944,897.945 479.521,863.281 498.737,810.731C513.897,769.273 503.01,696.686 481.632,696.686C480.658,696.686 475.906,700.427 471.072,705.002L462.28,713.315L454.288,704.205C449.891,699.193 445.311,695.092 444.11,695.092C439.436,695.092 433.746,699.002 429.85,704.891C427.611,708.273 425.09,711.043 424.246,711.043C420.031,711.043 413.832,689.485 411.405,666.381C408.538,639.106 406.709,622.372 405.912,616.14C405.372,611.892 405.547,610.813 406.438,612.913C407.174,614.645 409.407,616.45 411.4,616.92C414.029,617.54 415.963,620.224 418.432,626.664C423.939,641.04 431.577,651.573 438.044,653.707C444.985,655.998 444.802,656.178 454.144,637.582C462.427,621.094 464.295,620.095 477.293,625.187C481.225,626.731 482.687,626.244 490.654,620.732C509.035,608.019 508.514,608.237 514.929,610.484C518.117,611.599 523.239,614.837 526.308,617.676C537.419,627.954 538.185,628.192 548.74,624.628L558.132,621.454L562.128,625.976C564.325,628.461 568.424,635 571.233,640.507C578.647,655.038 585.986,656.237 592.926,644.052C607.092,619.196 610.972,611.392 612.549,604.612C615.466,592.054 615.607,591.794 617.577,595.305C620.538,600.58 619.868,644.711 616.644,656.812C615.125,662.516 612.878,674.872 611.649,684.272C608.024,712.042 600.355,718.612 591.663,701.394C587.744,693.632 586.15,691.902 582.907,691.902C580.726,691.902 578.405,691.728 577.746,691.515C577.087,691.302 574.669,694.614 572.369,698.871C565.644,711.321 560.851,712.569 553.208,703.866C529.005,676.3 505.695,760.173 522.028,816.066C528.396,837.864 554.771,857.659 607.653,880.327C632.025,890.771 694.445,894.941 724.69,888.142C750.202,882.405 751.376,863.145 726.497,858.479C708.952,855.191 675.879,834.054 666.249,819.971C654.809,803.245 643.308,763.567 645.004,746.683C645.546,741.281 646.711,724.774 647.591,709.996C649.489,678.077 651.947,655.366 658.608,608.199C665.496,559.413 665.618,551.557 659.59,545.267C653.568,538.982 647.992,538.766 646.492,544.763C644.97,550.859 636.66,564.032 633.148,565.911C630.389,567.386 628.479,571.836 625.967,582.645L624.855,587.43L623.311,583.442C619.29,573.056 626.599,547.962 634.768,544.11C649.856,536.998 653.622,534.599 655.88,530.669C657.28,528.228 661.536,524.279 665.339,521.894C673.528,516.752 690.594,499.68 690.594,496.628C690.594,495.452 692.335,493.349 694.46,491.957C696.588,490.562 698.791,487.966 699.353,486.19C699.918,484.413 701.049,482.958 701.869,482.958C704.252,482.958 703.582,492.074 701.006,494.65C699.716,495.94 697.599,501.555 696.304,507.125C695.009,512.693 692.145,525.146 689.936,534.796C687.727,544.446 684.365,558.883 682.464,566.878C678.266,584.536 678.695,653.695 683.098,668.777C684.377,673.163 686.283,682.359 687.335,689.214C689.646,704.304 704.645,749.268 712.62,765.02C725.449,790.35 767.087,792.533 822.498,770.779C830.208,767.752 837.447,765.275 838.579,765.275C841.817,765.275 882.419,743.789 891.012,737.53C924.483,713.147 945.545,692.94 960.093,671.246C972.037,653.441 983.848,619.142 980.798,611.12C978.703,605.616 966.037,610.306 952.178,621.724C927.145,642.344 902.164,649.597 859.793,648.545C839.583,648.044 833.902,647.38 829.36,644.994C780.973,619.554 772.286,574.728 805.207,520.339C813.733,506.256 847.575,457.221 850.824,454.246C853.218,452.054 858.996,444.516 863.659,437.498C868.322,430.48 876.892,418.638 882.701,411.18C892.334,398.813 910.452,372.335 927.449,345.785C961.086,293.236 954.038,268.985 904.505,266.849C837.43,263.954 821.781,258.577 792.676,228.422C786.972,222.516 777.375,212.95 771.345,207.166C765.315,201.382 755.267,191.287 749.015,184.731C714.758,148.808 703.769,138.793 692.901,133.607L682.078,128.443L659.618,129.315C614.042,131.089 595.57,141.361 562.127,183.533C544.15,206.2 530.161,213.65 510.04,211.267C497.554,209.786 489.479,203.795 460.241,174.306C422.353,136.094 412.344,130.695 377.173,129.511C363.162,129.041 355.682,129.525 349.259,131.318L349.263,131.316ZM400.044,343.929C402.972,345.387 412.915,355.386 422.141,366.145C431.365,376.904 440.165,386.596 441.692,387.678C453.171,395.817 470.021,421.393 471.953,433.608C478.866,477.335 392.599,466.019 367.848,419.951C344.11,375.767 364.992,326.456 400.043,343.929L400.044,343.929ZM644.791,343.148C675.636,356.074 676.502,411.086 646.291,438.392C629.496,453.571 599.799,464.455 582.708,461.69C542.615,455.209 558.627,390.107 609.557,352.535C625.707,340.622 633.686,338.496 644.791,343.148ZM306.751,414.964C313.332,424.32 313.34,424.351 313.921,441.348C314.854,468.595 310.697,467.832 297.309,438.296C296.313,436.101 293.839,430.719 291.81,426.333C281.908,404.939 293.495,396.122 306.751,414.965L306.751,414.964ZM734.371,409.939C740.277,418.371 738.492,423.939 716.704,465.012C709.647,478.317 702.651,473.549 706.274,457.903C714.797,421.078 718.06,412.383 724.583,409.134C731.286,405.797 731.479,405.813 734.371,409.939ZM517.288,479.048C526.384,481.337 537.174,507.815 532.14,515.497C523.791,528.243 488.028,521.198 488.028,506.808C488.028,495.498 504.712,474.762 511.703,477.383C512.882,477.823 515.395,478.573 517.288,479.049L517.288,479.048Z" style="fill-rule:nonzero;"/>
    </g>
</svg>
